X: 8840
T: Cuilcagh Mountains, The
R: reel
M: 4/4
K: Gdorian
|:G2 dG FDCD|F2 Ac defg|agfa gfdc|ABAG FGAF|
G2 dG FDCD|F2 Ac defg|agfa gfdc|AGFD G3g:|
|:g2 ag fdcd|f3g fdcd|fgag fdcA|GBAF DG G2|
gfag fdcA|cdfa g3a|agfa gfag|f3g fdcA:|

